src/pos-icons/account-check.svg

<svg height="24" viewBox="0 0 24 24" width="24" xmlns="http://www.w3.org/2000/svg"><path d="m21.1 12.5 1.4 1.41-6.53 6.59-3.47-3.5 1.4-1.41 2.07 2.08zm-11.1 4.5 3 3h-10v-2c0-2.21 3.58-4 8-4l1.89.11zm1-13a4 4 0 0 1 4 4 4 4 0 0 1 -4 4 4 4 0 0 1 -4-4 4 4 0 0 1 4-4z"/></svg>

<?xml version="1.0" encoding="UTF-8"?><!DOCTYPE svg PUBLIC "-//W3C//DTD SVG 1.1//EN" "http://www.w3.org/Graphics/SVG/1.1/DTD/svg11.dtd"><svg xmlns="http://www.w3.org/2000/svg" xmlns:xlink="http://www.w3.org/1999/xlink" version="1.1" id="mdi-account-check" width="24" height="24" viewBox="0 0 24 24"><path d="M21.1,12.5L22.5,13.91L15.97,20.5L12.5,17L13.9,15.59L15.97,17.67L21.1,12.5M10,17L13,20H3V18C3,15.79 6.58,14 11,14L12.89,14.11L10,17M11,4A4,4 0 0,1 15,8A4,4 0 0,1 11,12A4,4 0 0,1 7,8A4,4 0 0,1 11,4Z" /></svg>
